images/macbook-tool.svg

<svg xmlns="http://www.w3.org/2000/svg" viewBox="0 0 433.6 433.6" enable-background="new 0 0 433.6 433.6"><style type="text/css">.st0{fill:#8C6F4C;} .st1{fill:#FFFFFF;} .st2{fill:#9E8365;}</style><circle class="st0" cx="216.8" cy="216.8" r="216.8" id="Layer_1"/><g id="Layer_2"><path class="st1" d="M380.4 305.3h-327.2c-2.3 0-4.1-1.8-4.1-4.1v-7.7c0-2.3 1.8-4.1 4.1-4.1h327.2c2.3 0 4.1 1.8 4.1 4.1v7.7c0 2.3-1.8 4.1-4.1 4.1zm-32.2-27.3h-262.8v-152.8c0-7.5 6.1-13.7 13.7-13.7h238.1c6.1 0 11.1 5 11.1 11.1v155.4z"/><path class="st0" d="M100.6 125.8h232.4v138.2h-232.4z"/><path class="st2" d="M128.3 125.8l204.7 138.3v-138.3z"/></g></svg>

<?xml version="1.0" encoding="utf-8"?>
<!-- Generator: Adobe Illustrator 19.2.1, SVG Export Plug-In . SVG Version: 6.00 Build 0)  -->
<svg version="1.1" id="Layer_1" xmlns="http://www.w3.org/2000/svg" xmlns:xlink="http://www.w3.org/1999/xlink" x="0px" y="0px"
	 viewBox="0 0 433.6 433.6" style="enable-background:new 0 0 433.6 433.6;" xml:space="preserve">
<style type="text/css">
	.st0{fill:#8C6F4C;}
	.st1{fill:#FFFFFF;}
	.st2{fill:#9E8365;}
</style>
<circle id="Layer_1_1_" class="st0" cx="216.8" cy="216.8" r="216.8"/>
<g id="Layer_2">
	
		<image style="overflow:visible;opacity:0.5;" width="390" height="249" xlink:href="911C06DB10580E2D.png"  transform="matrix(1 0 0 1 32 92.6)">
	</image>
	<g>
		<g>
			<path class="st1" d="M380.4,305.3H53.2c-2.3,0-4.1-1.8-4.1-4.1v-7.7c0-2.3,1.8-4.1,4.1-4.1h327.2c2.3,0,4.1,1.8,4.1,4.1v7.7
				C384.5,303.5,382.7,305.3,380.4,305.3z M348.2,278H85.4V125.2c0-7.5,6.1-13.7,13.7-13.7h238.1c6.1,0,11.1,5,11.1,11.1V278H348.2z
				"/>
			<path class="st0" d="M100.6,125.8H333V264H100.6L100.6,125.8z"/>
			<path class="st2" d="M128.3,125.8L333,264.1V125.8H128.3z"/>
		</g>
	</g>
</g>
</svg>
